!!!OTL: Liebesleid (3-67), S. 192
!!!id: P1040
**kern
*clefG2
*k[b-e-a-]
*E-:
{8g
=1
8.g
16g
8g
8g
8a-
8b-
=2
4a-
8f
4f}
=3
{8f
=4
8.a-
16a-
8a-
8a-
8b-
8cc
=5
4b-
8g
4g}
=6
{8e-
=7
4e-
8e-
4e-
8e-
=8
4c
8cc
4cc}
=9
{8cc
=10
4b-
8b-
8b-
8a-
8f
=11
[2e-
8e-]}
==
*-
!!!minrhy: 16
!!!meters: 6/8 ]  ZZ[4
!!!cut: Liebesleid (3-67), S. 192
!!!reg: Lothringen
!!!trd: PINCK, Louis: Verklingende Weisen, Bd3, Metz 1933
!!!rhy1: X_  X_.XX_X_X_X_  X__X_X__
!!!rhy2: X_  X_.XX_X_X_X_  X__X_X__
!!!key: P1040  16 Eb 6/8 ]  ZZ[4
!!!mod: SECHSTONSKALA DUR ?]  AMBITUS[8
!!!kad: 2361
!!!akz: 3342_4453_11-66_5511_
!!!fot: 'a__as'b__c__
!!!for: 'a__a__b__c__
!!!fok: '\__^a_Va_\__
!! PHRAS[AUFTAKTIG]
!!!fkt: verlorene Ehre, Schwangerschaft
!! LOTH VKL
!! PR[23] 2K[3] 2G[13] 3K[3] 3G[0] 4A[10] 4Ü[0] 5A[3] 6K[0] 6G[0]
!! 7K[0] 7G[0] 8A[0] MEHR[0] SI[32] ABS[31] SR[16] SP[16]
!! ST[8] 2k[10] 2g[26] 3k[3] 3g[0] 4d[6] 4ü[0] 5d[0] 6k[0] 6g[0]
!! 7k[0] 7g[0] 8d[0] mehr[0] si[45] dm[-13] sr[35] sp[10]
!! 1F[24] 2F[67] 3F[9] 4F[0] LF[0] 2P[0] 3P[0] 4P[0] TRI[0] DF[3] AB[33]
!! TF[0] U3K[0] U3[0] U4[0] U4Ü[0] U5[9] U6K[0] U6[3] U7K[0] U7[3]
!! N1[22] N2K[0] N2[25] N3K[0] N3[13] N4[9] N4Ü[0] N5[13] N6K[0] N6[3]
!!!n7k: 0] N7[0] O1[0] O2K[0] O2[0] O3K[0] O3[0] HÖ[0
